X: 1
T: The Rights Of Man
R: hornpipe
M: 4/4
L: 1/8
K: Emin
|:GA|B2A2 G2F2|EFGA B2ef|gfed edBd|cBAG A2GA|BcAB GAFG|EFGA B2ef|gfed Bgfg|e2 E2 E2:||:ga|babg efga|babg egfe|d^cde fefg|afdf a2gf|edef gfga|bgaf gfef|gfed Bgfg|e2 E2 E2:|


Tune 83	Setting 12585

